!!!COM: Felix Mendelssohn
!!!CNT: Deutsch
!!!TXO: Deutsch
!!!OTL: Im Fru2hling
!!!LYR: Unknown
!!!OPS: Op. 9
!!!ONM: No. 4
!!!ENC: Daniel Alt & Leigh VanHandel
!!!YOR: Sa2mmtliche Lieder fu2r eine Singstimme 
!!!YOR: Neu revidirt von Dr. L. Benda, Ausgabe fu2r mittlere Stimme
!!!YOR: Braunschweig. Henry Litolff's Verlag. Boston and New York: Arthur P. Schmidt.
!!!ODT: 1830/
**kern
*staff1
=1-
*clefG2
*k[b-e-]
*M3/8
4.r
=2
4.r
=3
4.r
=4
4.r
=5
4.r
=6
8r
8r
{8g
=7
8b-
8a
8g
=8
8b-
8a
8g
=9
4f
8d
=10
8f}
8r
{8g
=11
8b-
8a
8g
=12
8b-
8a
8g
=13
4f
8d}
=14
{8dd
8b-
8g
=15
4f
8en
=16
8b-
8g
8d
=17
8c}
8r
{8g
=18
8a
8cc
8g
=19
4a
8g
=20
8a
8cc
8g
=21
8a}
8r
{8cc
=22
[4.cc
=23
4.cc_
=24
4.cc_
=25
4cc]
8ee-
=26
8dd
8cc
8bn
=27
8b-
8a
8g
=28
4f
16a
16g
=29
4f}
8r
=30
4.r
=31
4.r
=32
4.r
=33
4.r
=34
8r
8r
{8d
=35
8f
8en
8d
=36
8f
8en
8d
=37
4c
8f
=38
4f
8f
=39
8g
8b-
8f
=40
4g
8f
=41
8g
8b-
8f
=42
4g}
{8b-
=43
[4.b-
=44
4b-]
16b-
16a-
=45
4g
8e-
=46
4.cc}
=47
{8dd
16cc
16b-
16a
16g
=48
16f
16en
16b-
16g
16f
16e
=49
4f
8g-
=50
[4.g
=51
8g]
8en
8f
=52
8g
8a
8b-
=53
4dd
8cc
=54
ccq
4b-
8a
=55
4b-}
8r
==
*-